resources/haticons/SVG/stroller.svg

<!-- Generated by IcoMoon.io -->
<svg version="1.1" xmlns="http://www.w3.org/2000/svg" width="24" height="24" viewBox="0 0 24 24">
<title>stroller</title>
<path d="M14.016 20.016q0-0.844 0.586-1.43t1.383-0.586q0.844 0 1.43 0.586t0.586 1.43q0 0.797-0.586 1.383t-1.43 0.586q-0.797 0-1.383-0.586t-0.586-1.383zM3.984 20.016q0-0.844 0.586-1.43t1.43-0.586 1.43 0.586 0.586 1.43q0 0.797-0.586 1.383t-1.43 0.586-1.43-0.586-0.586-1.383zM21.984 6.984v-0.516q0-0.938-0.445-1.734t-1.195-1.266-1.688-0.469q-0.844 0-1.43 0.352t-1.008 0.82-0.75 0.844l-8.813 10.313q-0.281 0.328-0.234 0.727t0.305 0.68 0.727 0.281h7.547q0.844 0 1.43-0.586t0.586-1.43v-8.719q0.422-0.516 0.773-0.891t0.867-0.375q0.563 0 0.961 0.422t0.398 1.031v0.516h1.969zM14.297 4.078q-0.938-0.516-2.039-0.797t-2.273-0.281q-1.453 0-2.789 0.445t-2.461 1.289l4.875 4.875z"></path>
</svg>

<svg xmlns="http://www.w3.org/2000/svg" width="24" height="24"><path d="M14.016 20.016q0-.844.586-1.43T15.985 18q.844 0 1.43.586t.586 1.43q0 .797-.586 1.383t-1.43.586q-.797 0-1.383-.586t-.586-1.383zm-10.032 0q0-.844.586-1.43T6 18t1.43.586.586 1.43q0 .797-.586 1.383T6 21.985t-1.43-.586-.586-1.383zm18-13.032v-.516q0-.938-.445-1.734t-1.195-1.266-1.688-.469q-.844 0-1.43.352t-1.008.82-.75.844L6.655 15.328q-.281.328-.234.727t.305.68.727.281H15q.844 0 1.43-.586t.586-1.43V6.281q.422-.516.773-.891t.867-.375q.563 0 .961.422t.398 1.031v.516h1.969zm-7.687-2.906q-.938-.516-2.039-.797T9.985 3q-1.453 0-2.789.445T4.735 4.734L9.61 9.609z"/></svg>
